X:267
T:The Lounge Bar
C:Annlaug Börsheim
S:Eva Kvarnström
R:jig
M:6/8
L:1/8
K:Emaj
CEG F2E- | EGB e2d | c3 BGE | FAG F2E |
CEG F2E- | EGB e2d | cAc BGE |1 F2 E4 :|2 F2 E2 GB |:
e2e- edB | G3 GFG | Ace- edB | F3 FEF |
G3 GFE | C3 CB,C | E2F- FGF |1 E3 EGB :|2 E6 |:
ece d2c- | ceg f2d | edc Bec | BGE F2E |
ece d2c- | ceg f2d | edc BGE | F2 E4 :|
